apps/web/public/images/home/built-for-teams-enterprises-icon.svg

<svg width="55" height="54" viewBox="0 0 55 54" fill="none" xmlns="http://www.w3.org/2000/svg">
<rect x="0.458144" y="0.458144" width="54.015" height="53.0839" rx="3.20701" fill="url(#paint0_radial_5841_36240)"/>
<rect x="0.458144" y="0.458144" width="54.015" height="53.0839" rx="3.20701" stroke="url(#paint1_linear_5841_36240)" stroke-width="0.916289"/>
<path d="M16.6267 17.2115C16.6267 16.4479 16.93 15.7157 17.4699 15.1757C18.0098 14.6358 18.7421 14.3325 19.5056 14.3325H30.0053C30.7688 14.3325 31.5011 14.6358 32.041 15.1757C32.5809 15.7157 32.8842 16.4479 32.8842 17.2115V24.4935H35.4245C36.188 24.4935 36.9203 24.7968 37.4602 25.3367C38.0001 25.8766 38.3034 26.6089 38.3034 27.3724V40.5817C38.3034 41.0491 37.9241 41.4284 37.4567 41.4284H34.239V36.856C34.239 36.4518 34.0785 36.0641 33.7926 35.7783C33.5068 35.4924 33.1191 35.3319 32.7149 35.3319H22.2152C21.811 35.3319 21.4233 35.4924 21.1375 35.7783C20.8516 36.0641 20.6911 36.4518 20.6911 36.856V41.4284H17.4734C17.006 41.4284 16.6267 41.0491 16.6267 40.5817V17.2115ZM22.3846 41.4284H26.6183V37.0254H22.3846V41.4284ZM28.3118 41.4284H32.5455V37.0254H28.3118V41.4284ZM23.4007 21.1065C23.4007 20.7472 23.2579 20.4026 23.0039 20.1485C22.7498 19.8944 22.4052 19.7517 22.0459 19.7517C21.6866 19.7517 21.342 19.8944 21.0879 20.1485C20.8338 20.4026 20.6911 20.7472 20.6911 21.1065C20.6911 21.4658 20.8338 21.8104 21.0879 22.0645C21.342 22.3186 21.6866 22.4613 22.0459 22.4613C22.4052 22.4613 22.7498 22.3186 23.0039 22.0645C23.2579 21.8104 23.4007 21.4658 23.4007 21.1065ZM22.0459 27.2031C22.4052 27.2031 22.7498 27.0603 23.0039 26.8063C23.2579 26.5522 23.4007 26.2076 23.4007 25.8483C23.4007 25.489 23.2579 25.1444 23.0039 24.8903C22.7498 24.6362 22.4052 24.4935 22.0459 24.4935C21.6866 24.4935 21.342 24.6362 21.0879 24.8903C20.8338 25.1444 20.6911 25.489 20.6911 25.8483C20.6911 26.2076 20.8338 26.5522 21.0879 26.8063C21.342 27.0603 21.6866 27.2031 22.0459 27.2031ZM23.4007 30.5901C23.4007 30.2308 23.2579 29.8862 23.0039 29.6321C22.7498 29.378 22.4052 29.2353 22.0459 29.2353C21.6866 29.2353 21.342 29.378 21.0879 29.6321C20.8338 29.8862 20.6911 30.2308 20.6911 30.5901C20.6911 30.9494 20.8338 31.294 21.0879 31.5481C21.342 31.8021 21.6866 31.9449 22.0459 31.9449C22.4052 31.9449 22.7498 31.8021 23.0039 31.5481C23.2579 31.294 23.4007 30.9494 23.4007 30.5901ZM27.465 22.4613C27.8244 22.4613 28.169 22.3186 28.423 22.0645C28.6771 21.8104 28.8198 21.4658 28.8198 21.1065C28.8198 20.7472 28.6771 20.4026 28.423 20.1485C28.169 19.8944 27.8244 19.7517 27.465 19.7517C27.1057 19.7517 26.7611 19.8944 26.5071 20.1485C26.253 20.4026 26.1103 20.7472 26.1103 21.1065C26.1103 21.4658 26.253 21.8104 26.5071 22.0645C26.7611 22.3186 27.1057 22.4613 27.465 22.4613ZM28.8198 25.8483C28.8198 25.489 28.6771 25.1444 28.423 24.8903C28.169 24.6362 27.8244 24.4935 27.465 24.4935C27.1057 24.4935 26.7611 24.6362 26.5071 24.8903C26.253 25.1444 26.1103 25.489 26.1103 25.8483C26.1103 26.2076 26.253 26.5522 26.5071 26.8063C26.7611 27.0603 27.1057 27.2031 27.465 27.2031C27.8244 27.2031 28.169 27.0603 28.423 26.8063C28.6771 26.5522 28.8198 26.2076 28.8198 25.8483ZM27.465 31.9449C27.8244 31.9449 28.169 31.8021 28.423 31.5481C28.6771 31.294 28.8198 30.9494 28.8198 30.5901C28.8198 30.2308 28.6771 29.8862 28.423 29.6321C28.169 29.378 27.8244 29.2353 27.465 29.2353C27.1057 29.2353 26.7611 29.378 26.5071 29.6321C26.253 29.8862 26.1103 30.2308 26.1103 30.5901C26.1103 30.9494 26.253 31.294 26.5071 31.5481C26.7611 31.8021 27.1057 31.9449 27.465 31.9449ZM34.239 30.5901C34.239 30.2308 34.0963 29.8862 33.8422 29.6321C33.5881 29.378 33.2435 29.2353 32.8842 29.2353C32.5249 29.2353 32.1803 29.378 31.9262 29.6321C31.6722 29.8862 31.5294 30.2308 31.5294 30.5901C31.5294 30.9494 31.6722 31.294 31.9262 31.5481C32.1803 31.8021 32.5249 31.9449 32.8842 31.9449C33.2435 31.9449 33.5881 31.8021 33.8422 31.5481C34.0963 31.294 34.239 30.9494 34.239 30.5901Z" fill="white"/>
<defs>
<radialGradient id="paint0_radial_5841_36240" cx="0" cy="0" r="1" gradientUnits="userSpaceOnUse" gradientTransform="translate(27.4656 2.35781) scale(36.2498 36.8748)">
<stop stop-color="#74B5FF"/>
<stop offset="1" stop-color="#0071F2"/>
</radialGradient>
<linearGradient id="paint1_linear_5841_36240" x1="27.4656" y1="0" x2="27.4656" y2="54.0002" gradientUnits="userSpaceOnUse">
<stop stop-color="#0071F2"/>
<stop offset="1" stop-color="#7CB9FF"/>
</linearGradient>
</defs>
</svg>

<svg xmlns="http://www.w3.org/2000/svg" fill="none" viewBox="0 0 55 54"><rect width="54.015" height="53.084" x=".458" y=".458" fill="url(#paint0_radial_5841_36240)" rx="3.207"/><rect width="54.015" height="53.084" x=".458" y=".458" stroke="url(#paint1_linear_5841_36240)" stroke-width=".916" rx="3.207"/><path fill="#fff" d="M16.627 17.212a2.88 2.88 0 0 1 2.879-2.88h10.5a2.88 2.88 0 0 1 2.878 2.88v7.282h2.54a2.88 2.88 0 0 1 2.88 2.878v13.21c0 .467-.38.846-.847.846h-3.218v-4.572a1.524 1.524 0 0 0-1.524-1.524h-10.5a1.524 1.524 0 0 0-1.524 1.524v4.572h-3.218a.847.847 0 0 1-.846-.846zm5.758 24.216h4.233v-4.403h-4.233zm5.927 0h4.233v-4.403h-4.233zM23.4 21.107a1.355 1.355 0 1 0-2.71 0 1.355 1.355 0 0 0 2.71 0m-1.355 6.096a1.355 1.355 0 1 0 0-2.71 1.355 1.355 0 0 0 0 2.71M23.4 30.59a1.355 1.355 0 1 0-2.71 0 1.355 1.355 0 0 0 2.71 0m4.064-8.129a1.354 1.354 0 1 0 0-2.709 1.354 1.354 0 0 0 0 2.71m1.355 3.387a1.355 1.355 0 1 0-2.71 0 1.355 1.355 0 0 0 2.71 0m-1.355 6.097a1.355 1.355 0 1 0 0-2.71 1.355 1.355 0 0 0 0 2.71m6.774-1.355a1.355 1.355 0 1 0-2.71 0 1.355 1.355 0 0 0 2.71 0"/><defs><radialGradient id="paint0_radial_5841_36240" cx="0" cy="0" r="1" gradientTransform="matrix(36.2498 0 0 36.8748 27.466 2.358)" gradientUnits="userSpaceOnUse"><stop stop-color="#74b5ff"/><stop offset="1" stop-color="#0071f2"/></radialGradient><linearGradient id="paint1_linear_5841_36240" x1="27.466" x2="27.466" y1="0" y2="54" gradientUnits="userSpaceOnUse"><stop stop-color="#0071f2"/><stop offset="1" stop-color="#7cb9ff"/></linearGradient></defs></svg>
